X:928
T:Carmel O'Mahoney's
T:O'Mahoney's
T:Carmel Mahoney Mulhaire
R:reel
C:Martin Mulhaire
H:See also #632
Z:id:hn-reel-928
M:C|
K:D
|: AF~F2 DF~F2 | AF~F2 ABde | fdad bdaf | efge cABc |
d2cd BAFE | DAFD ADFA | BG~G2 cA~A2 |1 fage d2dB :|2 fage d2de || 
|: ~f3e fgfe | df~f2 af~f2 | dFAd fAdf | geed eAce |
~f3e fgfe | df~f2 af~f2 | ~g3f gbag |1 fgef d2de :|2 fgef defg ||
|: a2fa b2gb | affe fgaf | geed efga | baa^g a=gfg |
adfa bdgb | affe fgaf | gefd ecdB |1 cABc defg :|2 AFGE D2DE ||
|: FA~A2 FADF | ADFA bafa | g2fg efde | cdBc ABGE |
FA~A2 FADF | ADFA bafa | gefd ecdB |1 AFGE D2DE :|2 AFGE D3B || 

